packages/admin/admin-icons/icons/rte-clear-link.svg

<svg width="16" height="16" viewBox="0 0 16 16" fill="none" xmlns="http://www.w3.org/2000/svg">
<path fill-rule="evenodd" clip-rule="evenodd" d="M12 4H8.8V5.52001H12C13.368 5.52001 14.48 6.63201 14.48 8.00002C14.48 9.14402 13.696 10.104 12.632 10.384L13.8 11.552C15.104 10.888 16 9.56002 16 8.00002C16 5.79201 14.208 4 12 4ZM11.2 7.20001H9.448L11.048 8.80002H11.2V7.20001ZM0 1.81599L2.488 4.304C1.032 4.896 0 6.32801 0 8.00002C0 10.208 1.792 12 4 12H7.2V10.48H4C2.632 10.48 1.52 9.36802 1.52 8.00002C1.52 6.72801 2.488 5.68001 3.728 5.54401L5.384 7.20001H4.8V8.80002H6.984L8.8 10.616V12H10.184L13.392 15.2L14.4 14.192L1.016 0.799988L0 1.81599Z" fill="#242424"/>
</svg>

<svg width="16" height="16" fill="none" viewBox="0 0 16 16">
  <path fill="#242424" fill-rule="evenodd" d="M12 4.001H8.8v1.52H12a2.482 2.482 0 0 1 2.48 2.48 2.47 2.47 0 0 1-1.848 2.384l1.168 1.168c1.304-.664 2.2-1.992 2.2-3.552 0-2.208-1.792-4-4-4Zm-.8 3.2H9.448l1.6 1.6h.152v-1.6ZM0 1.817l2.488 2.488A3.993 3.993 0 0 0 0 8.001c0 2.208 1.792 4 4 4h3.2v-1.52H4a2.482 2.482 0 0 1-2.48-2.48c0-1.272.968-2.32 2.208-2.456l1.656 1.656H4.8v1.6h2.184L8.8 10.617v1.384h1.384l3.208 3.2 1.008-1.008L1.016.801 0 1.817Z" clip-rule="evenodd"/>
</svg>
